;FLAVOR:Marlin
;TIME:56889
;Filament used: 65.181m
;Layer height: 0.2
;MINX:-1.4
;MINY:-1.4
;MINZ:0.2
;MAXX:211.4
;MAXY:211.4
;MAXZ:20
;Generated with Cura_SteamEngine 4.11.0
M140 S60
M105
M190 S60
M104 S200
M105
M109 S200
M82 ;absolute extrusion mode
G21 ;metric values
G90 ;absolute positioning
M82 ;set extruder to absolute mode
M107 ;start with the fan off
G28 X0 Y0 ;move X/Y to min endstops
G28 Z0 ;move Z to min endstops
G1 Z15.0 F100 ;move the platform down 15mm
G92 E0 ;zero the extruded length
G1 F200 E3 ;extrude 3mm of feed stock
G92 E0 ;zero the extruded length again
G1 F100
G0 Y20 F100
M117 Printing...
G5
G92 E0
G92 E0
G1 F2400 E-6
;LAYER_COUNT:100
;LAYER:0
M107
M204 S3000
M205 X10 Y10
G1 F600 Z0.275
G0 F3000 X0.533 Y0.435 Z0.275
M204 S1800
M205 X8 Y8
;TYPE:SKIRT
G1 F600 Z0.2
G1 F2400 E0
G1 X1.071 Y-0.036 E0.0333
G1 X1.659 Y-.444 E0.06662
G1 X2.288 Y-.784 E0.09991
G1 X2.952 Y-1.051 E0.13324
G1 X3.641 Y-1.243 E0.16654
G1 X4.347 Y-1.357 E0.19984
G1 X5.151 Y-1.397 E0.23733
G1 X5.33 Y-1.4 E0.24566
G1 X204.293 Y-1.4 E9.51022
G1 X205.083 Y-1.389 E9.547
G1 X205.796 Y-1.339 E9.58029
G1 X206.5 Y-1.21 E9.61361
G1 X207.184 Y-1.002 E9.6469
G1 X207.841 Y-.72 E9.6802
G1 X208.463 Y-.366 E9.71352
G1 X209.041 Y0.055 E9.74682
G1 X209.569 Y0.538 E9.78014
G1 X210.039 Y1.076 E9.8134
G1 X210.447 Y1.664 E9.84673
G1 X210.786 Y2.294 E9.88004
G1 X211.053 Y2.957 E9.91332
G1 X211.244 Y3.647 E9.94666
G1 X211.357 Y4.353 E9.97995
G1 X211.397 Y5.15 E10.01711
G1 X211.4 Y5.33 E10.02549
G1 X211.4 Y204.343 E19.29237
G1 X211.391 Y205.07 E19.32623
G1 X211.342 Y205.784 E19.35955
G1 X211.214 Y206.488 E19.39287
G1 X211.008 Y207.173 E19.42618
G1 X210.727 Y207.83 E19.45945
G1 X210.374 Y208.453 E19.49279
G1 X209.954 Y209.032 E19.5261
G1 X209.472 Y209.56 E19.55939
G1 X208.935 Y210.032 E19.59268
G1 X208.347 Y210.44 E19.62601
G1 X207.718 Y210.781 E19.65932
G1 X207.055 Y211.049 E19.69262
G1 X206.366 Y211.241 E19.72593
G1 X205.66 Y211.356 E19.75924
G1 X204.849 Y211.397 E19.79705
G1 X204.67 Y211.4 E19.80538
G1 X5.624 Y211.399 E29.0738
G1 X4.926 Y211.39 E29.1063
G1 X4.213 Y211.341 E29.13958
G1 X3.509 Y211.213 E29.1729
G1 X2.824 Y211.007 E29.20621
G1 X2.167 Y210.725 E29.2395
G1 X1.545 Y210.372 E29.2728
G1 X0.966 Y209.952 E29.30611
G1 X0.437 Y209.47 E29.33943
G1 X-0.034 Y208.932 E29.37273
G1 X-.442 Y208.345 E29.40602
G1 X-.782 Y207.715 E29.43935
G1 X-1.05 Y207.052 E29.47265
G1 X-1.242 Y206.363 E29.50595
G1 X-1.356 Y205.657 E29.53925
G1 X-1.398 Y204.831 E29.57777
G1 X-1.4 Y204.658 E29.58582
G1 X-1.399 Y5.587 E38.8554
G1 X-1.39 Y4.922 E38.88637
G1 X-1.341 Y4.209 E38.91965
G1 X-1.212 Y3.505 E38.95298
G1 X-1.005 Y2.821 E38.98625
G1 X-.723 Y2.163 E39.01959
G1 X-.37 Y1.541 E39.05289
G1 X0.05 Y0.963 E39.08616
G1 X0.533 Y0.435 E39.11948
M204 S3000
M205 X10 Y10
G0 F3000 X1.08 Y0.688
M204 S1800
M205 X8 Y8
G1 F2400 X1.612 Y0.259 E39.1513
G1 X2.19 Y-.106 E39.18313
G1 X2.807 Y-.4 E39.21496
G1 X3.453 Y-.62 E39.24673
G1 X4.121 Y-.763 E39.27854
G1 X4.845 Y-.829 E39.3124
G1 X5.33 Y-.84 E39.33499
G1 X204.293 Y-.84 E48.59954
G1 X205.075 Y-.829 E48.63595
G1 X205.756 Y-.78 E48.66775
G1 X206.427 Y-.651 E48.69956
G1 X207.078 Y-.444 E48.73137
G1 X207.701 Y-.163 E48.7632
G1 X208.287 Y0.189 E48.79503
G1 X208.827 Y0.607 E48.82682
G1 X209.315 Y1.085 E48.85863
G1 X209.744 Y1.617 E48.89046
G1 X210.108 Y2.195 E48.92226
G1 X210.402 Y2.812 E48.95409
G1 X210.621 Y3.459 E48.98589
G1 X210.764 Y4.127 E49.0177
G1 X210.829 Y4.846 E49.05132
G1 X210.84 Y5.33 E49.07386
G1 X210.84 Y204.336 E58.34041
G1 X210.831 Y205.063 E58.37427
G1 X210.782 Y205.745 E58.40611
G1 X210.654 Y206.416 E58.43792
G1 X210.449 Y207.068 E58.46974
G1 X210.169 Y207.691 E58.50155
G1 X209.819 Y208.277 E58.53333
G1 X209.402 Y208.819 E58.56517
G1 X208.925 Y209.308 E58.59698
G1 X208.394 Y209.737 E58.62877
G1 X207.816 Y210.102 E58.6606
G1 X207.2 Y210.397 E58.6924
G1 X206.553 Y210.618 E58.72424
G1 X205.885 Y210.762 E58.75606
G1 X205.155 Y210.829 E58.79019
G1 X204.67 Y210.84 E58.81278
G1 X5.632 Y210.84 E68.08082
G1 X4.934 Y210.831 E68.11333
G1 X4.252 Y210.782 E68.14517
G1 X3.581 Y210.654 E68.17698
G1 X2.93 Y210.448 E68.20877
G1 X2.306 Y210.168 E68.24062
G1 X1.72 Y209.817 E68.27242
G1 X1.179 Y209.4 E68.30423
G1 X0.69 Y208.922 E68.33607
G1 X0.261 Y208.391 E68.36786
G1 X-.104 Y207.813 E68.39969
G1 X-.398 Y207.197 E68.43147
G1 X-.619 Y206.55 E68.46331
G1 X-.763 Y205.882 E68.49513
G1 X-.829 Y205.149 E68.5294
G1 X-.84 Y204.658 E68.55227
G1 X-.839 Y5.595 E77.82147
G1 X-.83 Y4.93 E77.85244
G1 X-.781 Y4.249 E77.88423
G1 X-.653 Y3.577 E77.91609
G1 X-.447 Y2.926 E77.94788
G1 X-.166 Y2.303 E77.97971
G1 X0.185 Y1.717 E78.01151
G1 X0.603 Y1.176 E78.04335
G1 X1.08 Y0.688 E78.07512
M204 S3000
M205 X10 Y10
G0 F3000 X1.154 Y1.401
M204 S1800
M205 X8 Y8
G1 F2400 X1.626 Y0.955 E78.10536
G1 X2.149 Y0.571 E78.13557
G1 X2.716 Y0.253 E78.16584
G1 X3.317 Y0.007 E78.19608
G1 X3.944 Y-.163 E78.22633
G1 X4.861 Y-.269 E78.26932
G1 X5.33 Y-.28 E78.29116
G1 X204.293 Y-.28 E87.55571
G1 X205.067 Y-.269 E87.59176
G1 X205.714 Y-.22 E87.62197
G1 X206.351 Y-0.092 E87.65222
G1 X206.967 Y0.114 E87.68247
G1 X207.554 Y0.394 E87.71275
G1 X208.101 Y0.743 E87.74297
G1 X208.602 Y1.157 E87.77323
G1 X209.047 Y1.63 E87.80347
G1 X209.432 Y2.154 E87.83375
G1 X209.749 Y2.721 E87.86399
G1 X209.994 Y3.322 E87.89422
G1 X210.163 Y3.949 E87.92445
G1 X210.269 Y4.862 E87.96725
G1 X210.28 Y5.33 E87.98905
G1 X210.28 Y204.329 E97.25528
G1 X210.271 Y205.056 E97.28913
G1 X210.223 Y205.704 E97.31939
G1 X210.095 Y206.341 E97.34964
G1 X209.891 Y206.958 E97.3799
G1 X209.612 Y207.545 E97.41017
G1 X209.264 Y208.093 E97.44039
G1 X208.851 Y208.594 E97.47063
G1 X208.379 Y209.041 E97.5009
G1 X207.856 Y209.426 E97.53114
G1 X207.29 Y209.744 E97.56137
G1 X206.688 Y209.991 E97.59167
G1 X206.062 Y210.161 E97.62187
G1 X205.139 Y210.269 E97.66514
G1 X204.67 Y210.28 E97.68699
G1 X5.639 Y210.28 E106.9547
G1 X4.941 Y210.271 E106.98721
G1 X4.293 Y210.222 E107.01747
G1 X3.656 Y210.095 E107.04771
G1 X3.04 Y209.89 E107.07794
G1 X2.453 Y209.611 E107.10821
G1 X1.905 Y209.262 E107.13846
G1 X1.404 Y208.849 E107.16869
G1 X0.957 Y208.377 E107.19896
G1 X0.572 Y207.854 E107.2292
G1 X0.254 Y207.287 E107.25947
G1 X0.008 Y206.686 E107.28971
G1 X-.162 Y206.059 E107.31996
G1 X-.269 Y205.134 E107.36332
G1 X-.28 Y204.658 E107.38549
G1 X-.28 Y5.603 E116.65433
G1 X-.271 Y4.938 E116.6853
G1 X-.222 Y4.29 E116.71556
G1 X-0.094 Y3.653 E116.74581
G1 X0.111 Y3.036 E116.77608
G1 X0.391 Y2.45 E116.80633
G1 X0.74 Y1.902 E116.83658
G1 X1.154 Y1.401 E116.86684
M204 S3000
M205 X10 Y10
G1 F2400 E110.86684
;MESH:?????????????????????.stl
G0 F3000 X4.335 Y5.854
G0 X5.854 Y5.854
G0 X23.6 Y53.6
M204 S1800
M205 X8 Y8
;TYPE:WALL-INNER
G1 F2400 E116.86684
G1 F1500 X23.6 Y186.4 E123.05057
G1 X186.4 Y186.4 E130.63122
G1 X186.4 Y53.6 E136.81494
G1 X23.6 Y53.6 E144.39559
M204 S3000
M205 X10 Y10
G0 F3000 X24.132 Y185.868
G0 X203.6 Y203.6
M204 S1800
M205 X8 Y8
G1 F1500 X6.4 Y203.6 E153.57805
G1 X6.4 Y6.4 E162.76051
G1 X203.6 Y6.4 E171.94296
G1 X203.6 Y203.6 E181.12542
M204 S3000
M205 X10 Y10
G0 F3000 X204.16 Y204.16
M204 S1800
M205 X8 Y8
G1 F1500 X5.84 Y204.16 E190.36003
G1 X5.84 Y5.84 E199.59464
G1 X204.16 Y5.84 E208.82925
G1 X204.16 Y204.16 E218.06386
M204 S3000
M205 X10 Y10
G0 F3000 X204.09 Y204.09
G0 X24.132 Y185.868
G0 X24.09 Y54.09
G0 X24.16 Y54.16
M204 S1800
M205 X8 Y8
G1 F1500 X24.16 Y185.84 E224.19543
G1 X185.84 Y185.84 E231.72393
G1 X185.84 Y54.16 E237.8555
G1 X24.16 Y54.16 E245.384
M204 S3000
M205 X10 Y10
G0 F3000 X24.72 Y54.72
M204 S1800
M205 X8 Y8
;TYPE:WALL-OUTER
G1 F1500 X24.72 Y185.28 E251.46342
G1 X185.28 Y185.28 E258.93977
G1 X185.28 Y54.72 E265.01919
G1 X24.72 Y54.72 E272.49554
M204 S3000
M205 X10 Y10
G0 F3000 X24.72 Y54.92
G0 X24.06 Y54.92
G0 X24.132 Y185.868
G0 X204.09 Y204.09
G0 X204.72 Y204.72
M204 S1800
M205 X8 Y8
G1 F1500 X5.28 Y204.72 E281.7823
G1 X5.28 Y5.28 E291.06906
G1 X204.72 Y5.28 E300.35582
G1 X204.72 Y204.72 E309.64258
M204 S3000
M205 X10 Y10
G0 F3000 X204.52 Y204.72
G0 X204.09 Y204.09
G0 X203.05 Y203.05
M204 S1800
M205 X8 Y8
;TYPE:SKIN
G1 F1500 X6.95 Y203.05 E318.77382
G1 X6.95 Y6.95 E327.90506
G1 X203.05 Y6.95 E337.0363
G1 X203.05 Y203.05 E346.16753
M204 S3000
M205 X10 Y10
G0 F3000 X186.95 Y186.95
M204 S1800
M205 X8 Y8
G1 F1500 X186.95 Y53.05 E352.40248
G1 X23.05 Y53.05 E360.03435
G1 X23.05 Y186.95 E366.26929
G1 X186.95 Y186.95 E373.90116
M204 S3000
M205 X10 Y10
G0 F3000 X202.789 Y7.967
M204 S1800
M205 X8 Y8
G1 F1500 X202.032 Y7.21 E373.95101
M204 S3000
M205 X10 Y10
G0 F3000 X201.24 Y7.21
M204 S1800
M205 X8 Y8
G1 F1500 X202.789 Y8.759 E374.05302
M204 S3000
M205 X10 Y10
G0 F3000 X202.789 Y9.551
M204 S1800
M205 X8 Y8
G1 F1500 X200.448 Y7.21 E374.20718
M204 S3000
M205 X10 Y10
G0 F3000 X199.656 Y7.21
M204 S1800
M205 X8 Y8
G1 F1500 X202.789 Y10.343 E374.41349
M204 S3000
M205 X10 Y10
G0 F3000 X202.789 Y11.135
M204 S1800
M205 X8 Y8
G1 F1500 X198.864 Y7.21 E374.67196
M204 S3000
M205 X10 Y10
G0 F3000 X198.072 Y7.21
M204 S1800
M205 X8 Y8
G1 F1500 X202.789 Y11.927 E374.98258
M204 S3000
M205 X10 Y10
G0 F3000 X202.789 Y12.719
M204 S1800
M205 X8 Y8
G1 F1500 X197.28 Y7.21 E375.34536
M204 S3000
M205 X10 Y10
G0 F3000 X196.488 Y7.21
M204 S1800
M205 X8 Y8
G1 F1500 X202.789 Y13.511 E375.76029
M204 S3000
M205 X10 Y10
G0 F3000 X202.789 Y14.303
M204 S1800
M205 X8 Y8
G1 F1500 X195.696 Y7.21 E376.22738
M204 S3000
M205 X10 Y10
G0 F3000 X194.904 Y7.21
M204 S1800
M205 X8 Y8
G1 F1500 X202.789 Y15.095 E376.74662
M204 S3000
M205 X10 Y10
G0 F3000 X202.789 Y15.887
M204 S1800
M205 X8 Y8
G1 F1500 X194.112 Y7.21 E377.31801
M204 S3000
M205 X10 Y10
G0 F3000 X193.32 Y7.21
M204 S1800
M205 X8 Y8
G1 F1500 X202.789 Y16.679 E377.94156
M204 S3000
M205 X10 Y10
G0 F3000 X202.789 Y17.471
M204 S1800
M205 X8 Y8
G1 F1500 X192.528 Y7.21 E378.61727
M204 S3000
M205 X10 Y10
G0 F3000 X191.736 Y7.21
M204 S1800
M205 X8 Y8
G1 F1500 X202.789 Y18.263 E379.34513
M204 S3000
M205 X10 Y10
G0 F3000 X202.789 Y19.055
M204 S1800
M205 X8 Y8
G1 F1500 X190.944 Y7.21 E380.12514
M204 S3000
M205 X10 Y10
G0 F3000 X190.153 Y7.21
M204 S1800
M205 X8 Y8
G1 F1500 X202.789 Y19.847 E380.95727
M204 S3000
M205 X10 Y10
G0 F3000 X202.789 Y20.639
M204 S1800
M205 X8 Y8
G1 F1500 X189.361 Y7.21 E381.84156
M204 S3000
M205 X10 Y10
G0 F3000 X188.569 Y7.21
M204 S1800
M205 X8 Y8
G1 F1500 X202.789 Y21.43 E382.77797
M204 S3000
M205 X10 Y10
G0 F3000 X202.789 Y22.222
M204 S1800
M205 X8 Y8
G1 F1500 X187.777 Y7.21 E383.76654
M204 S3000
M205 X10 Y10
G0 F3000 X186.985 Y7.21
M204 S1800
M205 X8 Y8
G1 F1500 X202.789 Y23.014 E384.80726
M204 S3000
M205 X10 Y10
G0 F3000 X202.789 Y23.806
M204 S1800
M205 X8 Y8
G1 F1500 X186.193 Y7.21 E385.90014
M204 S3000
M205 X10 Y10
G0 F3000 X185.401 Y7.21
M204 S1800
M205 X8 Y8
G1 F1500 X202.789 Y24.598 E387.04517
M204 S3000
M205 X10 Y10
G0 F3000 X202.789 Y25.39
M204 S1800
M205 X8 Y8
G1 F1500 X184.609 Y7.21 E388.24235
M204 S3000
M205 X10 Y10
G0 F3000 X183.817 Y7.21
M204 S1800
M205 X8 Y8
G1 F1500 X202.789 Y26.182 E389.49169
M204 S3000
M205 X10 Y10
G0 F3000 X202.789 Y26.974
M204 S1800
M205 X8 Y8
G1 F1500 X183.025 Y7.21 E390.79318
M204 S3000
M205 X10 Y10
G0 F3000 X182.233 Y7.21
M204 S1800
M205 X8 Y8
G1 F1500 X202.789 Y27.766 E392.14683
M204 S3000
M205 X10 Y10
G0 F3000 X202.789 Y28.558
M204 S1800
M205 X8 Y8
G1 F1500 X181.441 Y7.21 E393.55263
M204 S3000
M205 X10 Y10
G0 F3000 X180.649 Y7.21
M204 S1800
M205 X8 Y8
G1 F1500 X202.789 Y29.35 E395.01059
M204 S3000
M205 X10 Y10
G0 F3000 X202.789 Y30.142
M204 S1800
M205 X8 Y8
G1 F1500 X179.857 Y7.21 E396.5207
M204 S3000
M205 X10 Y10
G0 F3000 X179.065 Y7.21
M204 S1800
M205 X8 Y8
G1 F1500 X202.789 Y30.934 E398.08297
M204 S3000
M205 X10 Y10
G0 F3000 X202.789 Y31.726
M204 S1800
M205 X8 Y8
G1 F1500 X178.273 Y7.21 E399.69739
M204 S3000
M205 X10 Y10
G0 F3000 X177.481 Y7.21
M204 S1800
M205 X8 Y8
G1 F1500 X202.789 Y32.518 E401.36396
M204 S3000
M205 X10 Y10
G0 F3000 X202.789 Y33.31
M204 S1800
M205 X8 Y8
G1 F1500 X176.689 Y7.21 E403.08269
M204 S3000
M205 X10 Y10
G0 F3000 X175.897 Y7.21
M204 S1800
M205 X8 Y8
G1 F1500 X202.789 Y34.102 E404.85357
M204 S3000
M205 X10 Y10
G0 F3000 X202.789 Y34.894
M204 S1800
M205 X8 Y8
G1 F1500 X175.105 Y7.21 E406.67661
M204 S3000
M205 X10 Y10
G0 F3000 X174.313 Y7.21
M204 S1800
M205 X8 Y8
G1 F1500 X202.789 Y35.686 E408.55181
M204 S3000
M205 X10 Y10
G0 F3000 X202.789 Y36.478
M204 S1800
M205 X8 Y8
G1 F1500 X173.521 Y7.21 E410.47915
M204 S3000
M205 X10 Y10
G0 F3000 X172.729 Y7.21
M204 S1800
M205 X8 Y8
G1 F1500 X202.789 Y37.27 E412.45866
M204 S3000
M205 X10 Y10
G0 F3000 X202.789 Y38.062
M204 S1800
M205 X8 Y8
G1 F1500 X171.937 Y7.21 E414.49031
M204 S3000
M205 X10 Y10
G0 F3000 X171.146 Y7.21
M204 S1800
M205 X8 Y8
G1 F1500 X202.789 Y38.854 E416.57409
M204 S3000
M205 X10 Y10
G0 F3000 X202.789 Y39.646
M204 S1800
M205 X8 Y8
G1 F1500 X170.354 Y7.21 E418.71002
M204 S3000
M205 X10 Y10
G0 F3000 X169.562 Y7.21
M204 S1800
M205 X8 Y8
G1 F1500 X202.789 Y40.438 E420.89811
M204 S3000
M205 X10 Y10
G0 F3000 X202.789 Y41.229
M204 S1800
M205 X8 Y8
G1 F1500 X168.77 Y7.21 E423.13832
M204 S3000
M205 X10 Y10
G0 F3000 X167.978 Y7.21
M204 S1800
M205 X8 Y8
G1 F1500 X202.789 Y42.021 E425.43069
M204 S3000
M205 X10 Y10
G0 F3000 X202.789 Y42.813
M204 S1800
M205 X8 Y8
G1 F1500 X167.186 Y7.21 E427.7752
M204 S3000
M205 X10 Y10
G0 F3000 X166.394 Y7.21
M204 S1800
M205 X8 Y8
G1 F1500 X202.789 Y43.605 E430.17188
M204 S3000
M205 X10 Y10
G0 F3000 X202.789 Y44.397
M204 S1800
M205 X8 Y8
G1 F1500 X165.602 Y7.21 E432.6207
M204 S3000
M205 X10 Y10
G0 F3000 X164.81 Y7.21
M204 S1800
M205 X8 Y8
G1 F1500 X202.789 Y45.189 E435.12169
M204 S3000
M205 X10 Y10
G0 F3000 X202.789 Y45.981
M204 S1800
M205 X8 Y8
G1 F1500 X164.018 Y7.21 E437.67482
M204 S3000
M205 X10 Y10
G0 F3000 X163.226 Y7.21
M204 S1800
M205 X8 Y8
G1 F1500 X202.789 Y46.773 E440.28011
M204 S3000
M205 X10 Y10
G0 F3000 X202.789 Y47.565
M204 S1800
M205 X8 Y8
G1 F1500 X162.434 Y7.21 E442.93756
M204 S3000
M205 X10 Y10
G0 F3000 X161.642 Y7.21
M204 S1800
M205 X8 Y8
G1 F1500 X202.789 Y48.357 E445.64716
M204 S3000
M205 X10 Y10
G0 F3000 X202.789 Y49.149
M204 S1800
M205 X8 Y8
G1 F1500 X160.85 Y7.21 E448.40891
M204 S3000
M205 X10 Y10
G0 F3000 X160.058 Y7.21
M204 S1800
M205 X8 Y8
G1 F1500 X202.789 Y49.941 E451.22282
M204 S3000
M205 X10 Y10
G0 F3000 X202.789 Y50.733
M204 S1800
M205 X8 Y8
G1 F1500 X159.266 Y7.21 E454.08889
M204 S3000
M205 X10 Y10
G0 F3000 X158.474 Y7.21
M204 S1800
M205 X8 Y8
G1 F1500 X202.789 Y51.525 E457.00711
M204 S3000
M205 X10 Y10
G0 F3000 X202.789 Y52.317
M204 S1800
M205 X8 Y8
G1 F1500 X157.682 Y7.21 E459.97748
M204 S3000
M205 X10 Y10
G0 F3000 X156.89 Y7.21
M204 S1800
M205 X8 Y8
G1 F1500 X202.789 Y53.109 E463.00001
M204 S3000
M205 X10 Y10
G0 F3000 X202.789 Y53.901
M204 S1800
M205 X8 Y8
G1 F1500 X156.098 Y7.21 E466.07469
M204 S3000
M205 X10 Y10
G0 F3000 X155.306 Y7.21
M204 S1800
M205 X8 Y8
G1 F1500 X202.789 Y54.693 E469.20153
M204 S3000
M205 X10 Y10
G0 F3000 X202.789 Y55.485
M204 S1800
M205 X8 Y8
G1 F1500 X154.514 Y7.21 E472.38052
M204 S3000
M205 X10 Y10
G0 F3000 X153.722 Y7.21
M204 S1800
M205 X8 Y8
G1 F1500 X202.789 Y56.277 E475.61166
M204 S3000
M205 X10 Y10
G0 F3000 X202.789 Y57.069
M204 S1800
M205 X8 Y8
G1 F1500 X152.93 Y7.21 E478.89496
M204 S3000
M205 X10 Y10
G0 F3000 X152.138 Y7.21
M204 S1800
M205 X8 Y8
G1 F1500 X202.789 Y57.861 E482.23042
M204 S3000
M205 X10 Y10
G0 F3000 X202.789 Y58.653
M204 S1800
M205 X8 Y8
G1 F1500 X151.347 Y7.21 E485.61799
M204 S3000
M205 X10 Y10
G0 F3000 X150.555 Y7.21
M204 S1800
M205 X8 Y8
G1 F1500 X202.789 Y59.445 E489.05772
M204 S3000
M205 X10 Y10
G0 F3000 X202.789 Y60.237
M204 S1800
M205 X8 Y8
G1 F1500 X149.763 Y7.21 E492.54961
M204 S3000
M205 X10 Y10
G0 F3000 X148.971 Y7.21
M204 S1800
M205 X8 Y8
G1 F1500 X202.789 Y61.028 E496.09362
M204 S3000
M205 X10 Y10
G0 F3000 X202.789 Y61.82
M204 S1800
M205 X8 Y8
G1 F1500 X148.179 Y7.21 E499.68978
M204 S3000
M205 X10 Y10
G0 F3000 X147.387 Y7.21
M204 S1800
M205 X8 Y8
G1 F1500 X202.789 Y62.612 E503.3381
M204 S3000
M205 X10 Y10
G0 F3000 X202.789 Y63.404
M204 S1800
M205 X8 Y8
G1 F1500 X146.595 Y7.21 E507.03857
M204 S3000
M205 X10 Y10
G0 F3000 X145.803 Y7.21
M204 S1800
M205 X8 Y8
G1 F1500 X202.789 Y64.196 E510.79119
M204 S3000
M205 X10 Y10
